app/img/vk.svg

<svg width="26" height="14" viewBox="0 0 26 14" fill="none" xmlns="http://www.w3.org/2000/svg">
<path d="M25.8621 12.6435C25.8306 12.5795 25.8013 12.5264 25.774 12.4838C25.3229 11.7171 24.4609 10.7759 23.1884 9.66014L23.1615 9.63459L23.1481 9.62206L23.1345 9.60922H23.1208C22.5433 9.08965 22.1776 8.7403 22.0245 8.56144C21.7442 8.22073 21.6815 7.87586 21.8346 7.52642C21.9428 7.26241 22.3492 6.70485 23.053 5.85298C23.4231 5.40152 23.7163 5.03968 23.9328 4.76708C25.4942 2.80801 26.1711 1.55614 25.9634 1.01098L25.8828 0.883578C25.8286 0.80688 25.6887 0.736714 25.4634 0.672725C25.2375 0.608869 24.9488 0.598309 24.5967 0.640865L20.6981 0.666281C20.635 0.64516 20.5448 0.647129 20.4273 0.672725C20.31 0.698321 20.2513 0.711164 20.2513 0.711164L20.1834 0.743158L20.1295 0.781597C20.0844 0.807014 20.0348 0.851717 19.9806 0.915617C19.9267 0.979294 19.8816 1.05402 19.8455 1.13918C19.4211 2.16977 18.9385 3.12796 18.3969 4.0137C18.063 4.54186 17.7563 4.99959 17.4762 5.38715C17.1965 5.77458 16.9619 6.06003 16.7725 6.243C16.5828 6.42616 16.4117 6.57289 16.2579 6.68373C16.1045 6.79461 15.9873 6.84146 15.9062 6.82432C15.8249 6.80719 15.7483 6.79018 15.6758 6.77318C15.5495 6.69648 15.448 6.59217 15.3714 6.46017C15.2945 6.32816 15.2427 6.16201 15.2156 5.96185C15.1887 5.76156 15.1728 5.58928 15.1682 5.44443C15.164 5.29976 15.1659 5.09513 15.1751 4.83111C15.1845 4.56697 15.1887 4.38824 15.1887 4.29454C15.1887 3.97083 15.1954 3.61952 15.2088 3.2405C15.2225 2.86148 15.2335 2.56118 15.2428 2.33995C15.252 2.11849 15.2562 1.88419 15.2562 1.63718C15.2562 1.39017 15.2403 1.19646 15.2088 1.05586C15.1777 0.915438 15.13 0.779136 15.067 0.646995C15.0037 0.514988 14.9111 0.412873 14.7895 0.340381C14.6677 0.267979 14.5163 0.210523 14.3361 0.167833C13.8577 0.0656732 13.2486 0.0104095 12.5084 0.00181783C10.8299 -0.0151864 9.75134 0.0871074 9.27303 0.308565C9.08351 0.402133 8.91202 0.529978 8.75868 0.691698C8.59619 0.879147 8.57353 0.981442 8.69083 0.998267C9.23239 1.07483 9.61578 1.25798 9.84143 1.54755L9.92274 1.70099C9.98599 1.8117 10.0491 2.00769 10.1124 2.28871C10.1755 2.56973 10.2162 2.88059 10.2341 3.22112C10.2792 3.84299 10.2792 4.37531 10.2341 4.81814C10.1889 5.26114 10.1463 5.60602 10.1055 5.85302C10.0648 6.10003 10.0039 6.30019 9.92274 6.45345C9.84143 6.60676 9.78733 6.70046 9.76021 6.73447C9.73314 6.76848 9.71057 6.78991 9.69264 6.79833C9.57534 6.84075 9.45334 6.86236 9.32708 6.86236C9.20063 6.86236 9.04729 6.80267 8.86683 6.68337C8.68642 6.56407 8.49918 6.4002 8.30511 6.1915C8.11105 5.98275 7.89218 5.69104 7.64843 5.31632C7.40486 4.9416 7.15214 4.49873 6.89042 3.9877L6.67388 3.6171C6.53851 3.37868 6.35359 3.03153 6.11894 2.57595C5.88415 2.12019 5.67661 1.67933 5.4962 1.25346C5.42409 1.07461 5.31575 0.938439 5.17137 0.844737L5.10361 0.806298C5.05857 0.772289 4.98626 0.736177 4.88707 0.697694C4.78774 0.659256 4.68409 0.631691 4.57571 0.614731L0.866541 0.640148C0.487513 0.640148 0.230338 0.721187 0.0949232 0.88304L0.0407288 0.959604C0.0136553 1.00225 0 1.07036 0 1.1641C0 1.25781 0.0270735 1.37281 0.0812679 1.50898C0.622738 2.71001 1.21157 3.86832 1.84778 4.98406C2.48398 6.09981 3.03683 6.99857 3.50599 7.67955C3.97525 8.36102 4.45357 9.00418 4.94094 9.60873C5.42831 10.2135 5.75091 10.6011 5.90875 10.7713C6.06679 10.9419 6.19092 11.0694 6.28115 11.1546L6.61964 11.4612C6.83622 11.6656 7.15428 11.9105 7.57394 12.1957C7.9937 12.4812 8.4584 12.7622 8.9683 13.0392C9.47828 13.3158 10.0716 13.5415 10.7485 13.7161C11.4253 13.8908 12.0841 13.961 12.7249 13.9271H14.2817C14.5975 13.9014 14.8367 13.8077 14.9992 13.646L15.0531 13.5819C15.0893 13.5311 15.1232 13.4521 15.1545 13.3459C15.1862 13.2394 15.2019 13.1221 15.2019 12.9945C15.1927 12.6284 15.2222 12.2984 15.2897 12.0045C15.3572 11.7108 15.4341 11.4894 15.5201 11.3402C15.6061 11.1912 15.7031 11.0655 15.8111 10.9635C15.9193 10.8614 15.9964 10.7995 16.0416 10.7782C16.0865 10.7567 16.1224 10.7422 16.1495 10.7335C16.3661 10.6654 16.621 10.7313 16.9146 10.9317C17.2079 11.1318 17.4831 11.379 17.7404 11.6727C17.9977 11.9667 18.3067 12.2965 18.6676 12.6627C19.0288 13.029 19.3446 13.3013 19.6152 13.4804L19.8858 13.6337C20.0666 13.736 20.3012 13.8297 20.5901 13.9149C20.8784 14 21.131 14.0213 21.3479 13.9787L24.8133 13.9277C25.1561 13.9277 25.4228 13.8742 25.612 13.7679C25.8015 13.6614 25.9141 13.5441 25.9504 13.4166C25.9867 13.2888 25.9886 13.144 25.9573 12.982C25.9252 12.8204 25.8936 12.7074 25.8621 12.6435Z" fill="white" fill-opacity="0.6"/>
</svg>

<svg width="26" height="14" fill="none" xmlns="http://www.w3.org/2000/svg"><path d="M25.862 12.643a1.654 1.654 0 00-.088-.16c-.451-.766-1.313-1.707-2.586-2.823l-.026-.025-.014-.013-.014-.013h-.013c-.578-.52-.943-.869-1.096-1.048-.28-.34-.343-.685-.19-1.035.108-.264.514-.821 1.218-1.673.37-.451.663-.813.88-1.086 1.561-1.959 2.238-3.21 2.03-3.756l-.08-.127c-.054-.077-.194-.147-.42-.211-.226-.064-.514-.075-.866-.032l-3.899.025a.535.535 0 00-.27.007L20.25.71l-.068.032-.053.039a.59.59 0 00-.15.134.868.868 0 00-.134.223 20.36 20.36 0 01-1.45 2.875c-.333.528-.64.986-.92 1.373-.28.388-.514.673-.703.856-.19.183-.361.33-.515.44-.153.112-.27.158-.352.141a10.423 10.423 0 01-.23-.05.87.87 0 01-.305-.314 1.345 1.345 0 01-.155-.498 5.215 5.215 0 01-.048-.518c-.004-.144-.002-.349.007-.613.01-.264.014-.443.014-.536 0-.324.006-.675.02-1.054.014-.38.024-.68.034-.901.009-.222.013-.456.013-.703 0-.247-.016-.44-.047-.581a1.906 1.906 0 00-.142-.409.701.701 0 00-.277-.307 1.618 1.618 0 00-.454-.172C13.858.066 13.25.01 12.508.002 10.83-.015 9.751.087 9.273.309c-.19.093-.361.221-.514.383-.163.187-.185.29-.068.306.541.077.925.26 1.15.55l.082.153c.063.11.126.307.19.588.063.28.103.592.121.932a9.376 9.376 0 010 1.597c-.045.443-.088.788-.129 1.035-.04.247-.101.447-.182.6a2.495 2.495 0 01-.163.281.227.227 0 01-.067.064c-.118.043-.24.064-.366.064s-.28-.06-.46-.179a3.185 3.185 0 01-.562-.492 6.595 6.595 0 01-.657-.875 15.013 15.013 0 01-.758-1.328l-.216-.37c-.135-.24-.32-.586-.555-1.042a19.527 19.527 0 01-.623-1.323.85.85 0 00-.325-.408L5.104.806a.945.945 0 00-.217-.108 1.504 1.504 0 00-.311-.083L.866.64C.489.64.23.721.096.883L.04.96A.394.394 0 000 1.164c0 .094.027.209.081.345a41.17 41.17 0 001.767 3.475C2.484 6.1 3.037 7 3.506 7.68c.47.681.948 1.324 1.435 1.929.487.604.81.992.968 1.162.158.17.282.298.372.384l.339.306c.216.205.534.45.954.735.42.285.884.566 1.394.843a7.83 7.83 0 001.78.677 6.503 6.503 0 001.977.211h1.557c.316-.026.555-.12.717-.281l.054-.064c.036-.05.07-.13.101-.236.032-.107.048-.224.048-.351-.01-.367.02-.697.088-.99.067-.294.144-.516.23-.665.086-.149.183-.274.291-.377.108-.102.185-.163.23-.185a.891.891 0 01.108-.045c.217-.068.472-.002.766.199.293.2.568.447.825.74.258.295.567.624.928.99.36.367.677.64.947.818l.27.154c.182.102.416.196.705.28.288.086.541.107.758.065l3.465-.051c.343 0 .61-.054.799-.16.19-.107.302-.224.338-.351a.934.934 0 00.007-.435 1.534 1.534 0 00-.095-.338z" fill="#fff" fill-opacity=".6"/></svg>
